src/dark/hiso font dark_b.svg

<svg xmlns="http://www.w3.org/2000/svg" width="90" height="126" viewBox="0 0 90 126"><path fill="#000101" d="M54 54v-18l-36-18-18 9v72l36 18 36-18v-36l-18-9zm14.65 10.68l-29.65 14.841v-15.021l15 7.5v-14.65l14.65 7.33zm-32.65 48.97l-33-16.5v-68.3l15-7.5 29.29 14.65-11.29 5.65v72zm29.3-14.65l-26.3-13.15v-3.392l29.65 14.862-3.35 1.68z"/><text transform="translate(-108 -18)" fill="#F80071" font-family="'MyriadPro-Regular'" font-size="72">Letters 1-16</text></svg>

<svg xmlns="http://www.w3.org/2000/svg" width="90" height="126"><path fill="#000101" d="M54 54V36L18 18 0 27v72l36 18 36-18V63l-18-9zm14.65 10.68L39 79.521V64.5L54 72V57.35l14.65 7.33zM36 113.65L3 97.15v-68.3l15-7.5L47.29 36 36 41.65v72zM65.3 99L39 85.85v-3.392L68.65 97.32 65.3 99z"/><text transform="translate(-108 -18)" fill="#F80071" font-family="'MyriadPro-Regular'" font-size="72">Letters 1-16</text></svg>
